sevzap/images/icons/other/svg/marker-black-1.svg

<svg viewBox="0 0 17 23" fill="none" xmlns="http://www.w3.org/2000/svg">
<path d="M8.50043 12.4041C6.33169 12.4041 4.56677 10.6392 4.56677 8.46975C4.56677 6.30032 6.331 4.5354 8.50043 4.5354C10.6699 4.5354 12.4341 6.30032 12.4341 8.46975C12.4341 10.6392 10.6692 12.4041 8.50043 12.4041ZM8.50043 5.22876C6.71335 5.22876 5.25944 6.68267 5.25944 8.47044C5.25944 10.2582 6.71335 11.7121 8.50043 11.7121C10.2875 11.7121 11.7414 10.2582 11.7414 8.47044C11.7414 6.68267 10.2875 5.22876 8.50043 5.22876Z" fill="#333333"/>
<path d="M8.50025 23C8.39773 23 8.30076 22.955 8.23495 22.876C7.8997 22.4763 0.0310059 13.0298 0.0310059 8.47062C0.0310059 3.79997 3.83028 0 8.50025 0C13.1702 0 16.9695 3.79997 16.9695 8.47062C16.9695 13.0304 9.10079 22.4763 8.76623 22.8767C8.69973 22.955 8.60207 23 8.50025 23ZM8.50025 0.692667C4.21194 0.692667 0.723673 4.18163 0.723673 8.47062C0.723673 12.3295 7.10729 20.3949 8.50025 22.1078C9.8925 20.3942 16.2768 12.3288 16.2768 8.47062C16.2761 4.18163 12.7879 0.692667 8.50025 0.692667Z" fill="#333333"/>
</svg>

<svg viewBox="0 0 17 23" fill="none" xmlns="http://www.w3.org/2000/svg"><path d="M8.5 12.404A3.939 3.939 0 0 1 4.567 8.47 3.938 3.938 0 0 1 8.5 4.535a3.938 3.938 0 0 1 3.934 3.935A3.939 3.939 0 0 1 8.5 12.404zm0-7.175A3.245 3.245 0 0 0 5.26 8.47a3.245 3.245 0 0 0 3.24 3.242 3.245 3.245 0 0 0 3.241-3.242 3.245 3.245 0 0 0-3.24-3.241z" fill="#333"/><path d="M8.5 23a.344.344 0 0 1-.265-.124C7.9 22.476.03 13.03.03 8.471.031 3.8 3.831 0 8.501 0c4.67 0 8.469 3.8 8.469 8.47 0 4.56-7.87 14.006-8.204 14.407A.35.35 0 0 1 8.5 23zM8.5.693C4.212.693.724 4.182.724 8.47c0 3.858 6.383 11.924 7.776 13.637 1.393-1.714 7.777-9.78 7.777-13.637 0-4.29-3.49-7.778-7.777-7.778z" fill="#333"/></svg>
